src/icons/support-account.svg

<?xml version="1.0" encoding="UTF-8"?>
<svg width="60px" height="60px" viewBox="0 0 60 60" version="1.1" xmlns="http://www.w3.org/2000/svg" xmlns:xlink="http://www.w3.org/1999/xlink">
    <!-- Generator: Sketch 59 (86127) - https://sketch.com -->
    <title>HDL/Icon/Standard/Support/account</title>
    <desc>Created with Sketch.</desc>
    <g id="Colors" stroke="none" stroke-width="1" fill="none" fill-rule="evenodd">
        <g id="Support-Icons" transform="translate(-100.000000, -384.000000)">
            <g id="HDL/Icon/Standard/Support/account" transform="translate(100.000000, 384.000000)">
                <g id="ICON">
                    <circle id="Oval" fill="#D4ECFC" cx="30" cy="30" r="30"></circle>
                    <g id="HDL/Icon/Larger/setup" transform="translate(18.000000, 18.000000)" fill="#25A6F7">
                        <path d="M22.8,9.6 L20.028,9.6 C19.86,9.048 19.632,8.532 19.356,8.04 L21.396,6 C21.864,5.532 21.864,4.776 21.396,4.308 L19.704,2.616 C19.236,2.148 18.48,2.148 18.012,2.616 L15.972,4.656 C15.48,4.392 14.964,4.164 14.412,3.996 L14.412,1.2 C14.412,0.54 13.872,0 13.212,0 L10.8,0 C10.14,0 9.6,0.54 9.6,1.2 L9.6,3.996 C9.024,4.164 8.472,4.404 7.956,4.692 L6,2.736 C5.556,2.292 4.824,2.292 4.368,2.736 L2.736,4.368 C2.292,4.824 2.292,5.556 2.736,6 L4.68,7.944 C4.392,8.472 4.152,9.012 3.972,9.6 L1.2,9.6 C0.54,9.6 0,10.14 0,10.8 L0,13.2 C0,13.86 0.54,14.4 1.2,14.4 L3.972,14.4 C4.14,14.952 4.368,15.468 4.644,15.96 L2.604,18 C2.136,18.468 2.136,19.224 2.604,19.692 L4.296,21.384 C4.764,21.852 5.52,21.852 5.988,21.384 L8.028,19.344 C8.52,19.608 9.036,19.836 9.588,20.004 L9.588,22.8 C9.588,23.46 10.128,24 10.788,24 L13.188,24 C13.848,24 14.388,23.46 14.388,22.8 L14.388,20.004 C14.964,19.836 15.516,19.584 16.032,19.296 L18,21.264 C18.444,21.708 19.176,21.708 19.632,21.264 L21.264,19.632 C21.708,19.188 21.708,18.456 21.264,18 L19.32,16.056 C19.608,15.54 19.86,14.988 20.04,14.4 L22.8,14.4 C23.46,14.4 24,13.86 24,13.2 L24,10.8 C24,10.14 23.46,9.6 22.8,9.6 Z M12,16.8 C9.348,16.8 7.2,14.652 7.2,12 C7.2,9.348 9.348,7.2 12,7.2 C14.652,7.2 16.8,9.348 16.8,12 C16.8,14.652 14.652,16.8 12,16.8 Z" id="Shape"></path>
                    </g>
                </g>
            </g>
        </g>
    </g>
</svg>

<?xml version="1.0" encoding="utf-8"?>
<!-- Generator: Adobe Illustrator 20.1.0, SVG Export Plug-In . SVG Version: 6.00 Build 0)  -->
<svg version="1.1" id="Layer_1" xmlns="http://www.w3.org/2000/svg" xmlns:xlink="http://www.w3.org/1999/xlink" x="0px" y="0px"
	 viewBox="0 0 60 60" style="enable-background:new 0 0 60 60;" xml:space="preserve">
<style type="text/css">
	.st0{fill:#D4ECFC;}
	.st1{fill:#25A6F7;}
</style>
<title>HDL/Icon/Standard/Support/account</title>
<desc>Created with Sketch.</desc>
<g id="Colors">
	<g id="Support-Icons" transform="translate(-100.000000, -384.000000)">
		<g id="HDL_x2F_Icon_x2F_Standard_x2F_Support_x2F_account" transform="translate(100.000000, 384.000000)">
			<g id="ICON">
				<circle id="Oval" class="st0" cx="30" cy="30" r="30"/>
				<g id="HDL_x2F_Icon_x2F_Larger_x2F_setup" transform="translate(18.000000, 18.000000)">
					<path id="Shape" class="st1" d="M22.8,9.6H20C19.9,9,19.6,8.5,19.4,8l2-2c0.5-0.5,0.5-1.2,0-1.7l-1.7-1.7
						c-0.5-0.5-1.2-0.5-1.7,0l-2,2c-0.5-0.3-1-0.5-1.6-0.7V1.2c0-0.7-0.5-1.2-1.2-1.2h-2.4c-0.7,0-1.2,0.5-1.2,1.2V4
						C9,4.2,8.5,4.4,8,4.7l-2-2c-0.4-0.4-1.2-0.4-1.6,0L2.7,4.4C2.3,4.8,2.3,5.6,2.7,6l1.9,1.9C4.4,8.5,4.2,9,4,9.6H1.2
						C0.5,9.6,0,10.1,0,10.8v2.4c0,0.7,0.5,1.2,1.2,1.2H4C4.1,15,4.4,15.5,4.6,16l-2,2c-0.5,0.5-0.5,1.2,0,1.7l1.7,1.7
						c0.5,0.5,1.2,0.5,1.7,0l2-2c0.5,0.3,1,0.5,1.6,0.7v2.8c0,0.7,0.5,1.2,1.2,1.2h2.4c0.7,0,1.2-0.5,1.2-1.2V20
						c0.6-0.2,1.1-0.4,1.6-0.7l2,2c0.4,0.4,1.2,0.4,1.6,0l1.6-1.6c0.4-0.4,0.4-1.2,0-1.6l-1.9-1.9c0.3-0.5,0.5-1.1,0.7-1.7h2.8
						c0.7,0,1.2-0.5,1.2-1.2v-2.4C24,10.1,23.5,9.6,22.8,9.6z M12,16.8c-2.7,0-4.8-2.1-4.8-4.8S9.3,7.2,12,7.2s4.8,2.1,4.8,4.8
						S14.7,16.8,12,16.8z"/>
				</g>
			</g>
		</g>
	</g>
</g>
</svg>
